X: 2149
T: Şedarabân Seyir
C: Rauf Yektâ
O: Turkey
F: http://compmusic.upf.edu/node/140
N: sedaraban--seyir--semai--1--rauf_yekta
N: makam= sedaraban
N: form= seyir
N: usul= semai = 3/4
M: 3/4
L: 1/16
K: C _7/8B _7/8e ^f ^c
Q: 1/4=120
%%MIDI tuningsystem comma53
d8 c4  | d4 e8  | f8 e4  | d4 c8  | d8 e4  | f4 g4 a4  | \
w:   |   |   |   |   |   | 
f8 e4  | d8 z4  | d8 g4  | f4 g8  | 
w:   |   |   |   | 
a8 b4  | a4 g8  | f8 e4  | d4 e4 f4  | a4 g4 f4  | \
w:   |   |   |   |   | 
e4 d8  | d8 c4  | B8 _e4  | d8 =c4  | B4 A4 G4  | 
w:   |   |   |   |   | 
A4 B4 =c4  | B4 A4 B4  | A2G2 F4 G4  | A8 z4  | \
w:   |   |   |   | 
G8 A4  | B4 A4 G4  | F8 E4  | D4 C8  | 
w:   |   |   |   | 
D4 E4 F4  | G4 A4 G4  | F8 E4  | D8 z4  | |


